X: 10631
M: C|
L: 1/8
K: G
|: d2 |\
gfga b2g2 | fefg a2f2 | edef gfed | B2e2 e2g2 |\
dBGB d2d2 | edef gfed | cBAG EFGA | B2G2 G2 :|


